svgs/light/router.svg

<svg xmlns="http://www.w3.org/2000/svg" viewBox="0 0 576 512"><!-- Font Awesome Pro 6.0.0-alpha2 by @fontawesome - https://fontawesome.com License - https://fontawesome.com/license (Commercial License) --><path d="M96 392C82.75 392 72 402.75 72 416S82.75 440 96 440S120 429.25 120 416S109.25 392 96 392ZM192 392C178.75 392 168 402.75 168 416S178.75 440 192 440S216 429.25 216 416S205.25 392 192 392ZM512 320H368V240C368 231.199 360.801 224 352 224S336 231.199 336 240V320H64C28.654 320 0 348.652 0 384V448C0 483.346 28.654 512 64 512H512C547.346 512 576 483.346 576 448V384C576 348.652 547.346 320 512 320ZM544 448C544 465.672 529.674 480 512 480H64C46.326 480 32 465.672 32 448V384C32 366.326 46.326 352 64 352H512C529.674 352 544 366.326 544 384V448ZM154.25 103.719C209.562 57.469 279.781 32 352 32S494.438 57.469 549.75 103.719C552.719 106.219 556.375 107.438 560 107.438C564.562 107.438 569.094 105.484 572.281 101.703C577.938 94.922 577.031 84.828 570.25 79.156C509.219 28.109 431.719 0 352 0S194.781 28.109 133.75 79.156C126.969 84.828 126.062 94.922 131.719 101.703C137.438 108.484 147.531 109.359 154.25 103.719ZM197.75 151.953C190.969 157.625 190.062 167.719 195.719 174.5C201.375 181.266 211.5 182.125 218.25 176.516C255.688 145.234 303.156 128 352 128S448.312 145.234 485.75 176.516C488.719 179.016 492.375 180.234 496 180.234C500.562 180.234 505.125 178.281 508.281 174.5C513.938 167.719 513.031 157.625 506.25 151.953C463.094 115.875 408.312 96 352 96S240.906 115.875 197.75 151.953Z"/></svg>

<svg xmlns="http://www.w3.org/2000/svg" viewBox="0 0 576 512"><!--! Font Awesome Pro 6.3.0 by @fontawesome - https://fontawesome.com License - https://fontawesome.com/license (Commercial License) Copyright 2023 Fonticons, Inc. --><path d="M96 392c-13.25 0-24 10.75-24 24S82.75 440 96 440S120 429.3 120 416S109.3 392 96 392zM192 392c-13.25 0-24 10.75-24 24S178.8 440 192 440S216 429.3 216 416S205.3 392 192 392zM512 320h-144V240c0-8.801-7.198-16-15.1-16S336 231.2 336 240V320H64c-35.35 0-64 28.65-64 64v63.1C0 483.3 28.65 512 64 512h448c35.35 0 64-28.66 64-64V384C576 348.7 547.3 320 512 320zM544 448c0 17.67-14.33 32-32 32H64c-17.67 0-32-14.33-32-32v-64c0-17.67 14.33-32.01 32-32.01h448c17.67 0 32 14.34 32 32.01V448zM154.3 103.7C209.6 57.47 279.8 32 352 32s142.4 25.47 197.8 71.72C552.7 106.2 556.4 107.4 560 107.4c4.562 0 9.094-1.953 12.28-5.734c5.656-6.781 4.75-16.88-2.031-22.55C509.2 28.11 431.7 0 352 0S194.8 28.11 133.8 79.16C126.1 84.83 126.1 94.92 131.7 101.7C137.4 108.5 147.5 109.4 154.3 103.7zM197.8 151.1C190.1 157.6 190.1 167.7 195.7 174.5C201.4 181.3 211.5 182.1 218.3 176.5C255.7 145.2 303.2 128 352 128s96.31 17.23 133.8 48.52C488.7 179 492.4 180.2 496 180.2c4.562 0 9.125-1.953 12.28-5.734c5.656-6.781 4.75-16.88-2.031-22.55C463.1 115.9 408.3 96 352 96S240.9 115.9 197.8 151.1z"/></svg>
